X:1
T:Minerva, CMD
T:Minerva, CMD
T:John Hart Stockton, 1869
T:Public Domain Courtesy of the Cyber Hymnal™
C:John Hart Stockton, 1869
Z:Public Domain
Z:Courtesy of the Cyber Hymnal™
%%score ( 1 2 ) ( 3 4 )
L:1/8
Q:1/4=113
M:4/4
K:G
V:1 treble 
V:2 treble 
V:3 bass 
V:4 bass 
V:1
 [B,D]2 | [B,D]3 [CE] [B,D]2 [DG]2 | [GB]3 [GB] [DA]2 [DG]2 | [Gd]2 [Gd]2 [GB]2 G2 | [FA]6 [GB]2 | %5
 [Gd]3 [Gd] [GB]2 [DG]2 | [EG]3 [EG] [CE]2 [B,D]2 | [B,D]3 [DG] [DB]2 [DA]2 | [DG]6 [Gd]2 | %9
 [Gd]3 [GB] (BA) [DG]2 | [EG]3 [CE] [CE]2 [B,D]2 | [B,D]2 [DG]2 [GB]2 G2 | [FA]6 [Fd]2 | %13
 [Gd]3 [GB] (BA) [DG]2 | [EG]3 [CE] [CE]2 [B,D]2 | [B,D]2 [DG]2 [DB]2 [DA]2 | [DG]6 |] %17
V:2
 x2 | x8 | x8 | x6 G2 | x8 | x8 | x8 | x8 | x8 | x4 D2 x2 | x8 | x6 G2 | x8 | x4 D2 x2 | x8 | x8 | %16
 x6 |] %17
V:3
 G,2 | G,3 G, G,2 [G,B,]2 | [G,D]3 [G,D] [G,C]2 [G,B,]2 | [G,,B,]2 [G,,B,]2 [G,,D]2 [B,,D]2 | %4
 [D,D]6 G,2 | [G,B,]3 [G,B,] [G,D]2 [B,,D]2 | [C,C]3 [C,C] [C,G,]2 [G,,G,]2 | %7
 [D,G,]3 [D,B,] [D,D]2 [D,C]2 | [G,B,]6 [G,B,]2 | [G,B,]3 [G,D] (DC) [G,B,]2 | %10
 [C,C]3 [C,G,] [C,G,]2 [G,,G,]2 | [G,B,]2 [G,B,]2 [G,D]2 [G,B,]2 | [D,D]6 [D,C]2 | %13
 [G,,B,]3 [G,,D] (DC) [G,,B,]2 | [C,C]3 [C,G,] [C,G,]2 [G,,G,]2 | [D,G,]2 [D,B,]2 [D,D]2 [D,C]2 | %16
 [G,B,]6 |] %17
V:4
 G,2 | G,3 G, G,2 x2 | x8 | x8 | x6 G,2 | x8 | x8 | x8 | x8 | x4 G,2 x2 | x8 | x8 | x8 | %13
 x4 G,,2 x2 | x8 | x8 | x6 |] %17

